public/static/img/crypto/XRP.svg

<svg width="48" height="48" viewBox="0 0 48 48" fill="none" xmlns="http://www.w3.org/2000/svg">
<g clip-path="url(#clip0_1150_15593)">
<path d="M47.2765 29.8056C44.0713 42.6628 31.0489 50.4875 18.1902 47.2816C5.33699 44.076 -2.48778 31.0528 0.719008 18.1968C3.923 5.33808 16.9454 -2.48709 29.8001 0.718096C42.6577 3.92369 50.4821 16.948 47.2765 29.806V29.8056Z" fill="#23292F"/>
<path d="M35.8008 10H40.644L30.5648 19.9796C26.9148 23.5916 20.9968 23.5916 17.3448 19.9796L7.26127 10H12.1081L19.7656 17.5808C22.0872 19.8688 25.8156 19.8688 28.1372 17.5808L35.8008 10ZM12.0465 37.7499H7.20007L17.3444 27.7087C20.9944 24.0968 26.9124 24.0968 30.5648 27.7087L40.7096 37.7499H35.8664L28.1436 30.1075C25.822 27.8195 22.0936 27.8195 19.7716 30.1075L12.0469 37.7499H12.0465Z" fill="white"/>
</g>
<defs>
<clipPath id="clip0_1150_15593">
<rect width="48" height="48" fill="white"/>
</clipPath>
</defs>
</svg>

<svg width="48" height="48" fill="none" xmlns="http://www.w3.org/2000/svg"><g clip-path="url(#a)"><path d="M47.276 29.806C44.072 42.663 31.05 50.487 18.19 47.282 5.337 44.076-2.488 31.052.72 18.197 3.923 5.338 16.945-2.487 29.8.718c12.858 3.206 20.682 16.23 17.476 29.088Z" fill="#23292F"/><path d="M35.8 10h4.844l-10.08 9.98c-3.65 3.612-9.567 3.612-13.22 0L7.262 10h4.847l7.658 7.58a5.963 5.963 0 0 0 8.371 0L35.801 10ZM12.048 37.75H7.2l10.144-10.041c3.65-3.612 9.568-3.612 13.22 0l10.146 10.04h-4.844l-7.722-7.642a5.964 5.964 0 0 0-8.372 0l-7.725 7.643Z" fill="#fff"/></g><defs><clipPath id="a"><path fill="#fff" d="M0 0h48v48H0z"/></clipPath></defs></svg>
